modules/zondicons/icons/cog.svg

<?xml version="1.0" encoding="UTF-8" standalone="no"?>
<svg width="20px" height="20px" viewBox="0 0 20 20" version="1.1" xmlns="http://www.w3.org/2000/svg" xmlns:xlink="http://www.w3.org/1999/xlink">
    <!-- Generator: Sketch 3.7.2 (28276) - http://www.bohemiancoding.com/sketch -->
    <title>cog</title>
    <desc>Created with Sketch.</desc>
    <defs></defs>
    <g id="Page-1" stroke="none" stroke-width="1" fill="none" fill-rule="evenodd">
        <g id="cog" fill="#000000">
            <path d="M3.07341517,8.98249621 C3.02504367,9.31467099 3,9.65441086 3,10 C3,10.3455891 3.02504367,10.685329 3.07341517,11.0175038 L0.339745962,13.2679492 L2.33974596,16.7320508 L5.6562237,15.4895842 C6.186564,15.9097976 6.77922001,16.2547893 7.41807354,16.5084412 L8,20 L12,20 L12.5819265,16.5084412 C13.22078,16.2547893 13.813436,15.9097976 14.3437763,15.4895842 L17.660254,16.7320508 L19.660254,13.2679492 L16.9265848,11.0175038 C16.9749563,10.685329 17,10.3455891 17,10 C17,9.65441086 16.9749563,9.31467099 16.9265848,8.98249621 L19.660254,6.73205081 L17.660254,3.26794919 L14.3437763,4.51041581 C13.813436,4.09020245 13.22078,3.7452107 12.5819265,3.49155876 L12,0 L8,0 L7.41807354,3.49155876 C6.77922001,3.7452107 6.186564,4.09020245 5.6562237,4.51041581 L2.33974596,3.26794919 L0.339745962,6.73205081 L3.07341517,8.98249621 Z M10,13 C11.6568542,13 13,11.6568542 13,10 C13,8.34314575 11.6568542,7 10,7 C8.34314575,7 7,8.34314575 7,10 C7,11.6568542 8.34314575,13 10,13 Z" id="Combined-Shape"></path>
        </g>
    </g>
</svg>

<svg width="20" height="20" viewBox="0 0 20 20" xmlns="http://www.w3.org/2000/svg"><path d="M3.073 8.982a7.058 7.058 0 0 0 0 2.036L.34 13.268l2 3.464 3.316-1.242c.53.42 1.123.765 1.762 1.018L8 20h4l.582-3.492a6.993 6.993 0 0 0 1.762-1.018l3.316 1.242 2-3.464-2.733-2.25a7.058 7.058 0 0 0 0-2.036l2.733-2.25-2-3.464-3.316 1.242a6.993 6.993 0 0 0-1.762-1.018L12 0H8l-.582 3.492A6.993 6.993 0 0 0 5.656 4.51L2.34 3.268l-2 3.464 2.733 2.25zM10 13a3 3 0 1 0 0-6 3 3 0 0 0 0 6z" fill="#000" fill-rule="evenodd"/></svg>
